svg/general/outlined-open-envelope.svg

<svg width="17" height="16" viewBox="0 0 17 16" fill="none" xmlns="http://www.w3.org/2000/svg">
<path d="M15.991 5.2C15.528 4.866 15.257 4.7 15.257 4.7L8.016 0.352005L0.774001 4.7C-0.00699925 5.168 0.0560007 5.134 0.0560007 5.134C0.0346666 5.23832 0.0239453 5.34453 0.0240007 5.451L0.0160007 14.051C0.0160007 14.4754 0.184572 14.8823 0.48463 15.1824C0.784688 15.4824 1.19165 15.651 1.616 15.651H14.416C14.6261 15.651 14.8342 15.6096 15.0283 15.5292C15.2224 15.4488 15.3988 15.3309 15.5474 15.1824C15.6959 15.0338 15.8138 14.8574 15.8942 14.6633C15.9746 14.4692 16.016 14.2611 16.016 14.051V5.451C16.014 5.36683 16.0057 5.28292 15.991 5.2ZM4.376 10.66L1.616 12.316V8.072L4.376 10.66ZM8.016 10.341L14.193 14.048H1.836L8.016 10.341ZM11.616 10.641L14.416 8.017V12.317L11.616 10.641ZM14.35 6.02901L10.287 9.83801L8.016 8.476L5.707 9.861L1.644 6.052L8.016 2.21701L14.35 6.02901Z" fill="black"/>
</svg>

<svg id="Layer_1" data-name="Layer 1" xmlns="http://www.w3.org/2000/svg" viewBox="0 0 16 16"><title>outlined-open-envelope</title><path d="M15.991,5.2c-.463-.334-.734-.5-.734-.5L8.016.352.774,4.7c-.781.468-.718.434-.718.434a1.578,1.578,0,0,0-.032.317l-.008,8.6a1.6,1.6,0,0,0,1.6,1.6h12.8a1.6,1.6,0,0,0,1.6-1.6v-8.6A1.667,1.667,0,0,0,15.991,5.2ZM4.376,10.66l-2.76,1.656V8.072Zm3.64-.319,6.177,3.707-12.357,0Zm3.6.3,2.8-2.624v4.3ZM14.35,6.029,10.287,9.838,8.016,8.476,5.707,9.861,1.644,6.052,8.016,2.217Z"/></svg>
